icons/Full Moon--1504915.svg

<svg enable-background="new 0 0 16 16" viewBox="0 0 16 16" xmlns="http://www.w3.org/2000/svg"><path d="m8 15c-3.86 0-7-3.141-7-7 0-3.86 3.14-7 7-7 3.859 0 7 3.14 7 7 0 3.859-3.141 7-7 7zm0-13c-3.309 0-6 2.691-6 6s2.691 6 6 6 6-2.691 6-6-2.691-6-6-6z"/><path d="m10 8c-1.103 0-2-.897-2-2s.897-2 2-2 2 .897 2 2-.897 2-2 2zm0-3c-.552 0-1 .449-1 1s.448 1 1 1 1-.449 1-1-.448-1-1-1z"/><path d="m6.5 12c-.827 0-1.5-.673-1.5-1.5s.673-1.5 1.5-1.5 1.5.673 1.5 1.5-.673 1.5-1.5 1.5zm0-2c-.276 0-.5.225-.5.5s.224.5.5.5.5-.225.5-.5-.224-.5-.5-.5z"/></svg>

<?xml version="1.0" encoding="utf-8"?>
<!DOCTYPE svg PUBLIC "-//W3C//DTD SVG 1.0//EN" "http://www.w3.org/TR/2001/REC-SVG-20010904/DTD/svg10.dtd">
<svg    fill="#000000" xmlns="http://www.w3.org/2000/svg" xmlns:xlink="http://www.w3.org/1999/xlink" version="1.1" x="0px" y="0px" viewBox="0 0 16 16" style="enable-background:new 0 0 16 16;" xml:space="preserve"><g><path d="M8,15c-3.86,0-7-3.141-7-7c0-3.86,3.14-7,7-7c3.859,0,7,3.14,7,7C15,11.859,11.859,15,8,15z M8,2C4.691,2,2,4.691,2,8   s2.691,6,6,6s6-2.691,6-6S11.309,2,8,2z"></path><path d="M10,8C8.897,8,8,7.103,8,6s0.897-2,2-2s2,0.897,2,2S11.103,8,10,8z M10,5C9.448,5,9,5.449,9,6s0.448,1,1,1s1-0.449,1-1   S10.552,5,10,5z"></path><path d="M6.5,12C5.673,12,5,11.327,5,10.5S5.673,9,6.5,9S8,9.673,8,10.5S7.327,12,6.5,12z M6.5,10C6.224,10,6,10.225,6,10.5   S6.224,11,6.5,11S7,10.775,7,10.5S6.776,10,6.5,10z"></path></g></svg>
